X:1
T:Title
%%score [ 1 2 ]
L:1/8
Q:1/4=108
M:4/4
K:D
V:1 treble nm="Soprano" snm="S"
V:2 treble nm="Alto" snm="A"
V:1
"^My love hath vowed" E4 E2 D2 | G2 (FE) D2 E2 | B2 e2 e2"^Thomas Campion\n(1575-1619)" d2 | %3
w: ~My love hath|vow'd he * will for-|sake me And I|
w: ~Had I fore-|seen what * is en-|su- ed, And what|
w: ~Dis- sem- bling|wretch to * gain thy|plea- sure. What didst|
w: ~That heart is|near- est * to mis-|for tune, That will|
 =c2 A2 B2 B2 | E8 | E4 E2 D2 | G2 (FE) D2 E2 | B2 e2 e2 d2 | =c2 A2 B2 B2 | E8 |: G2 D2 G2 G2 | %11
w: am al- rea- dy|sped.|Far o- ther|pro- mise * he did|make me When he|had my mai- den-|head.|If such dan- ger|
w: now with pain I|prove,|Un- hap- py|then I * had es-|chew- ed, This un-|kind e- vent of|love.|Maids fore- know their|
w: thou not vow and|swear?|So didst thou|rob me * of the|trea- sure Which so|long I held so|dear.|Now thou prov'st to|
w: trust a feign- ed|tongue.|When flat- t'ring|men our * loves im-|por- tune, They in-|tend us deep- est|wrong.|If this shame of|
 d2 e2 B2 B2 | G2 D2 G2 G2 | d2 d2 G4 | E4 E2 E2 | B4 E4 :| %16
w: be in play- ing|And sport must to|ear- nest turn,|no more a-|may- ing.|
w: own un- do- ing,|But fear naught till|all is done,|a- lone is|woo- ing.|
w: me a stran- ger,|Such is the vile|guise of men,|wo- man in|dan- ger.|
w: love's be- tray- ing,|But this once I|clean- ly shun,|no more a-|may- ing.|
V:2
 z2 E2 G2 F2 | E2 (FG) (AG) (FE) | D2 B,2 E2 F2 | G2 (AG) F3 E | E8 | z2 E2 G2 F2 | %6
w: ||||||
w: ||||||
w: ||||||
w: ||||||
 E2 (FG) (AG) (FE) | D2 B,2 E2 F2 | G2 (AG) F3 E | E8 |: G2 A2 B2 (AG) | A2 G2 F2 ^D2 | %12
w: ||||||
w: ||||||
w: ||||||
w: ||||||
 G2 A2 B2 (AG) | A2 A2 B4 | BAGF E2 G2 | F4 E4 :| %16
w: ||I will go no more a-|may- ing.|
w: ||When a man a- lone is|woo- ing.|
w: ||When a wo- man is in|dan- ger.|
w: ||I will go no more a-|may- ing.|

